!!!COM: Gabriel Faure/
!!!CNT: Francais
!!!TXO: Francais
!!!OTL: La Chanson du Pe^cheur (Lamento)
!!!OPS: Op. 4
!!!ONM: No. 1
!!!LYR: The/ophile Gautier
!!!ENC: Jacob Pegg
!!!YOR: Album of Twenty Songs (Vingt Me/lodies,) Volume I
!!!YOR: Edward B. Marks Music Corporation, RCA Building, Radio
!!!YOR: City, New York 20, N.Y.
!!!ODT: 1873/
!!NB: Vocal melody and text only encoded.
!!NB: First instance of melodic material only encoded.
**kern	**silbe
*clef G2	*
*k[]	*
*M4/4	*
*MM[moderato]	*
!!created: 8/20/03 16:06
!!proofed and posted: 8/21/03 0:56
!!edit time: 36 min.
=1	=1
2r	.
4r	.
8r	.
{8e	{Ma
=2	=2
4.a	belle
8g#	a-
8a	-mie
8b	est
8cc	mor-
8g#	-te,
=3	=3
12b	Je
12a	pleu-
12gn	-re-
(12gn	-rai
12fn)	|
12e	tou-
2f}	-jours!}
=4	=4
{4dd	{Sous
8dd	la
8cc#	tombe
8dd	elle
8ee	em-
8ff	-por-
8cc#	-te
=5	=5
8ee	Mon
8dd	a^me
12ccn	et
12b-	mes
12a	a-
2b-}	-mours.}
=6	=6
{6b-	{Dans
12a	le
12g	ciel
12f	sans
12e	m'at-
4.cc	-ten-
8cc	-dre,
=7	=7
6cc	El-
12b-	-le
12a	s'en
12g	re-
12f#	-tour-
2dd}	-na,}
=8	=8
{4dd	{L'an-
8ee	-ge
8ff	qui
8ee	l'em-
8dd	-me-
4cc	-na
=9	=9
8b-	Ne
8dd	vou-
12g	-lut
12a	pas
12b-	me
2a	pren-
=10	=10
8a}	-dre}
8r	.
{8.a	{Que
16cc	mon
2bn	sort
=11	=11
4.a	est
8cc	a-
2b}	-mer!}
=12	=12
{4cc	{Ah!
8.cc	sans
16ee	a-
2dd	-mour
=13	=13
4.ee	sans
8gg	a-
(4gg	-mour
[4ff)	|
=14	=14
4ff]}	|}
{8.a	{S'en
16a	al-
2a	-ler
=15	=15
4.g#	sur
8a	la
2a}	mer!}
!! 16-29 repeat
=30	=30
2r	.
4r	.
{8.a	{S'en
16a	al-
=31	=31
2a	-ler
4.cc	sur
8cc	la
=32	=32
1b}	mer!}
=33	=33
2r	.
4r	.
8r	.
{8ee	{Sur
=34	=34
4.ee	moi
8ee	la
8gg	nuit
8ff	im-
8ff	-men-
8ee	-se
=35	=35
8dd	Pla-
8cc	-ne
12b-	comme
12cc	un
12dd	lin-
4.ee}	-cueil,}
{8e	{Je
=36	=36
4.ee	chan-
8ee	-te
8gg	ma
8ff	ro-
8ff	-man-
8ee	-ce
=37	=37
6dd	Que
12cc	le
12b-	ciel
12cc	en-
12dd	-tend
2ee}	seul!}
=38	=38
{4ee	{Ah!
8ee	comme
8ee	elle
8ff	e/-
8ee	-tait
8dd	bel-
8cc	-le,
=39	=39
6b-	et
12cc	com-
12dd	-bien
12cc	je
12b-	l'ai-
2cc}	-mais!}
=40	=40
8r	.
{8dd	{Je
8ee	n'ai-
8ff	-me-
6aa	-rai
12cc	ja-
4cc	-mais
=41	=41
6b-	U-
12dd	-ne
12g	femme
12a	au-
12b-	-tant
2a	qu'el-
=42	=42
8a}	-le!}
8r	.
4r	.
2r	.
!!repeat of 9-15; end.
*-	*-
